usr/share/icons/biglinux-icons-material/scalable/mimetypes/application-x-skg.svg

<svg width="24" height="24" viewBox="0 0 24 24" fill="none" xmlns="http://www.w3.org/2000/svg">
<rect x="1" y="1" width="22" height="22" rx="6.6" fill="url(#paint0_radial_3_1213)"/>
<path d="M5.63636 8V8.63636H5V16.2727H5.63636V16.9091H18.3636V16.2727H19V8.63636H18.3636V8H5.63636ZM6.27273 8.63636H17.7273C17.7273 8.80514 17.7943 8.967 17.9137 9.08634C18.033 9.20568 18.1949 9.27273 18.3636 9.27273V15.6364C18.1949 15.6364 18.033 15.7034 17.9137 15.8227C17.7943 15.9421 17.7273 16.104 17.7273 16.2727H6.27273C6.27273 16.104 6.20568 15.9421 6.08634 15.8227C5.967 15.7034 5.80514 15.6364 5.63636 15.6364V9.27273C5.80514 9.27273 5.967 9.20568 6.08634 9.08634C6.20568 8.967 6.27273 8.80514 6.27273 8.63636ZM12 9.90909C11.3249 9.90909 10.6775 10.1773 10.2001 10.6546C9.72273 11.132 9.45455 11.7794 9.45455 12.4545C9.45455 13.1296 9.72273 13.7771 10.2001 14.2545C10.6775 14.7318 11.3249 15 12 15C12.6751 15 13.3225 14.7318 13.7999 14.2545C14.2773 13.7771 14.5455 13.1296 14.5455 12.4545C14.5455 11.7794 14.2773 11.132 13.7999 10.6546C13.3225 10.1773 12.6751 9.90909 12 9.90909ZM12 10.5455C12.5063 10.5455 12.9919 10.7466 13.3499 11.1046C13.708 11.4626 13.9091 11.9482 13.9091 12.4545C13.9091 12.9609 13.708 13.4465 13.3499 13.8045C12.9919 14.1625 12.5063 14.3636 12 14.3636C11.4937 14.3636 11.0081 14.1625 10.6501 13.8045C10.292 13.4465 10.0909 12.9609 10.0909 12.4545C10.0909 11.9482 10.292 11.4626 10.6501 11.1046C11.0081 10.7466 11.4937 10.5455 12 10.5455Z" fill="#FDDDA3"/>
<defs>
<radialGradient id="paint0_radial_3_1213" cx="0" cy="0" r="1" gradientUnits="userSpaceOnUse" gradientTransform="translate(17.5 1) rotate(116.565) scale(24.5967)">
<stop stop-color="#F8BC61"/>
<stop offset="1" stop-color="#DD890B"/>
</radialGradient>
</defs>
</svg>

<svg xmlns="http://www.w3.org/2000/svg" width="24" height="24" fill="none"><rect width="22" height="22" x="1" y="1" fill="url(#a)" rx="6.6"/><path fill="#FDDDA3" d="M5.636 8v.636H5v7.637h.636v.636h12.728v-.636H19V8.636h-.636V8H5.636Zm.637.636h11.454a.636.636 0 0 0 .637.637v6.363a.636.636 0 0 0-.637.637H6.273a.637.637 0 0 0-.637-.637V9.273a.636.636 0 0 0 .637-.637ZM12 9.91a2.546 2.546 0 1 0 0 5.092 2.546 2.546 0 0 0 0-5.092Zm0 .636a1.91 1.91 0 1 1 0 3.819 1.91 1.91 0 0 1 0-3.819Z"/><defs><radialGradient id="a" cx="0" cy="0" r="1" gradientTransform="rotate(116.565 8.441 5.908) scale(24.5967)" gradientUnits="userSpaceOnUse"><stop stop-color="#F8BC61"/><stop offset="1" stop-color="#DD890B"/></radialGradient></defs></svg>
